!!!OTL: 736. Die ewige Schoepfung.
!!!COM: Johann Andre
!!!ARE: Europa, Mitteleuropa, Deutschland
!!!SCT: B0736
!!!TXL: @@DE
!!!YEM: Copyright 1995, estate of Helmut Schaffrath.
**kern	**text
*ICvox	*
*Ivox	*
*clefG2	*
*M4/4	*
*met(c)	*
*k[f#]	*
*G:	*
!LO:TX:a:t=Einʒelne.	!
!LO:TX:a:t=Mäßig.	!
{4dd	Jm
=1	=1
4b	An-
4g	-fang
4a	war's
4b	auf
=2	=2
(4.cc	Er-
8a)	.
4f#}	-den
{4d	nur
=3	=3
4g	fin-
4g	-ſter,
4cc	wüſt
4b	und
=4	=4
2a	leer;
4r}	.
{4dd	und
=5	=5
4b	ſollt'
4g	was
4a	ſein
4b	und
=6	=6
(4.cc	wer-
8a)	.
4f#}	-den,
{4d	mußt'
=7	=7
4g	es
8gL	wo
8aJ	.
4b	an-
4a	-ders
=8	=8
2g	her:
2r}	.
=9	=9
!LO:TX:a:t=P:only higher voice encoded:problem	!
!LO:TX:a:t=Chor.	!
{4.dd	al-
8dd	-le
4dd	gu-
4dd	-te
=10	=10
2ee	Ga-
4ee	-be
4gg	kommt
=11	=11
4ff#	o-
4dd	-ben
4ee	her
4cc#	von
=12	=12
2dd	Gott,
4r}	.
!LO:TX:a:t=Halbchor.	!
{4dd	vom
=13	=13
2gg	ſchö-
2ff#	-nen
=14	=14
2ee	blau-
2dd	-en
=15	=15
(4dd	Him-
4cc)	.
4b	-mel
4a	her-
=16	=16
(2a	-ab,
4b)}	.
!LO:TX:a:t=Ganʒer Chor.	!
{4dd	vom
=17	=17
2gg	ſchö-
2ff#	-nen
=18	=18
2ee	blau-
2dd	-en
=19	=19
(4dd	Him-
4cc)	.
2b	-mel
=20	=20
(2a	her-
4g);}	-ab.
==	==
!!!AGN: Lob - Lied, religioes
!!!GTL: Religioese Lieder
!!!ONB: ESAC (Essen Associative Code) Database: BOEHME
!!!AMT: simple quadruple
!!!AIN: vox
!!!EED: Helmut Schaffrath
!!!EEV: 1.0
!!!Text: M. Claudius
!!!URL-scan: https://archive.org/details/BoehmeVtLieder1895/page/n591/mode/2up
!!!ENC: Anna Maria Matuszewska
!!!EEV: 2024/18/07
*-	*-
